X:1
T:Title
%%score { ( 1 3 ) | ( 2 4 ) }
L:1/8
Q:1/4=95
M:6/8
K:Ab
V:1 treble nm="Grand Piano"
V:3 treble 
V:2 treble 
V:4 treble 
V:1
 cdc B2 c | [CA]3 [CE]3 | DEG B2 [Fd] | [Ec]6 | cdc B2 c | A3 [FB]3 | cAF E2 B | [CA]6 | %8
w: J.~E.~French * * * *||||||||
 [Ec][Ec][Ec] [Ec]3 | BAF [CE]3 | CEA c e2 |[M:7/8] edc G- [Gd]3 |[M:3/4] [Ec][Ec] [Ec] [Ec]3 | %13
w: |||||
 BA F [CE]3 |[M:7/8] CEA c [_Ge]3 |[M:3/4] [Fd][Ec]- [Ec]/[DB]/ [CA]3 |] %16
w: |||
V:2
 [A,E][A,F][K:bass][A,E] [E,G,D]2 [E,G,E] | [A,,A,]3 [A,,A,]3 | %2
 [E,G,][E,G,D][E,G,D] [E,G,D]2 [E,G,] | [A,,A,]6 | [A,E][A,F][K:bass][A,E] [E,G,D]2 [E,G,E] | %5
 [F,A,C]3 [D,A,]3 | [E,A,E][E,A,C][E,A,C] [E,G,D]2 [E,G,D] | [A,,A,]6 | %8
 [A,,A,][A,,A,][A,,A,] [A,,A,]3 | [D,F,D][D,F,D][D,A,D] [A,,A,]3 | %10
 [A,,E,][C,A,C][E,A,C][K:treble] [A,E] [A,CA]2 |[M:7/8] [CEA][B,EG][A,EA][K:bass] z B,3 | %12
[M:3/4] [A,,A,][A,,A,] [A,,A,] [A,,A,]3 | [D,F,D][D,F,D] [D,A,D] [A,,A,]3 | %14
[M:7/8] [A,,E,][C,A,C][E,A,C] [A,E] [C,A,]3 |[M:3/4] [D,B,][E,G,]- [E,G,]/[E,G,]/ [A,,A,]3 |] %16
V:3
 x6 | x6 | x6 | x6 | x6 | x6 | x6 | x6 | x6 | x6 | x6 |[M:7/8] z z2 [EB] z z2 |[M:3/4] x6 | x6 | %14
[M:7/8] x7 |[M:3/4] x6 |] %16
V:4
 x2[K:bass] x4 | x6 | x6 | x6 | x2[K:bass] x4 | x6 | x6 | x6 | x6 | x6 | x3[K:treble] x3 | %11
[M:7/8] z z2[K:bass] E,- E,3 |[M:3/4] x6 | x6 |[M:7/8] x7 |[M:3/4] x6 |] %16

